X:467
T: Nchtlicher Besuch mit dem Verlobungsring (177b), S.388
N: T0355
O: Luxemburg
S: Singendes Volk, Esch-Alzette, 1937 posth.]
N: Straen, fff Witry, 21.1.1933, Textblatt von hhh Johann Barthel
R: Tage-, Wchter-, Fenstergang-, Stndchenlieder, Liebeslied]
M: 2/4
L: 1/8
K: F
c2 | c2dc | B2B2 | B2cB | A2z2 |
c2cc | c2dc | B2c2 | A2
FA | cccc | c2AF | F2cc | c2
dc | B2cB | B2cB | B2c2 | A2
FA | cccc | c2AF | F2cc | c2
dc | B2cB | B2cB | B2c2 | A2

@@@ Tune index: 8521
